X:060 
T:Frog in the Puddle*, The 
S:Grier MS
F:file ID: cre.4/060frog_p
B:CRE4.009: unnamed, no repeats
L:1/8
Q:160
M:6/8
R:jig
K:G
D|G3 BAG|Bdg dBG|DGG BAG|EAA AFD|
DGG BAG|BAG dBG|c2A BGF|E2F G2 :|
|:f|gfg efg|fdB B2f|gfg efg|afd def|
gfe agf|gfe dcB|cBA BGF|GAG G2 :|

%%%

